src/svg/06-technology/domain.svg

<svg xmlns="http://www.w3.org/2000/svg" viewBox="0 0 24 24"><path d="M12 1.7C6.3 1.7 1.7 6.3 1.7 12S6.3 22.3 12 22.3 22.3 17.7 22.3 12 17.7 1.7 12 1.7zM4.4 6.4c1.1-1.5 2.7-2.7 4.5-3.3l.4-.1-.2.3c-.7.8-1.3 1.9-1.7 3.2v.1H4.3l.1-.2zm-1.8 5c.1-1.3.4-2.6 1.1-3.8v-.1h3.4v.2c-.3 1.3-.4 2.5-.5 3.8v.1h-4v-.2zm1.1 5c-.6-1.2-1-2.5-1.1-3.8v-.1h4v.1c0 1.4.2 2.6.5 3.8v.2l-3.4-.2zm5.2 4.5c-1.8-.6-3.4-1.8-4.5-3.3l-.1-.2h3.1v.1c.4 1.3 1 2.4 1.6 3.2l.3.3-.4-.1zm2.7.5h-.2c-1.2-.4-2.2-1.7-3-3.8l-.1-.2h3.2v4zm0-4.9H8.1v-.1c-.3-1.3-.5-2.6-.5-3.8v-.1h4v4zm0-4.9h-4v-.1c0-1.3.2-2.7.5-3.8v-.1h3.5v4zm0-5H8.3l.1-.2c.7-2 1.8-3.4 3-3.8h.2v4zm8.7 1c.6 1.2 1 2.5 1.1 3.8v.1h-4v-.1c0-1.4-.2-2.6-.5-3.8v-.2l3.4.2zm-5.2-4.5c1.8.6 3.4 1.8 4.5 3.3l.1.2h-3.1v-.1c-.4-1.3-1-2.4-1.7-3.2l-.2-.3.4.1zm-2.7-.5h.2c1.2.4 2.2 1.7 3 3.8l.1.2h-3.2v-4zm0 4.9h3.5v.1c.3 1.3.5 2.6.5 3.8v.1h-4v-4zm0 4.9h4v.1c0 1.3-.2 2.7-.5 3.8v.1h-3.5v-4zm.2 8.9h-.2v-4h3.2l-.1.2c-.6 2.1-1.7 3.5-2.9 3.8zm7-3.7c-1.1 1.5-2.7 2.7-4.5 3.3l-.4.1.3-.3c.7-.8 1.2-1.9 1.7-3.2v-.1h3.1l-.2.2zm.7-1.2l-3.4.1v-.2c.3-1.3.4-2.5.5-3.8v-.1h4v.1c-.1 1.4-.5 2.7-1.1 3.9z"/></svg>

<?xml version="1.0" encoding="utf-8"?>
<!-- Generator: Adobe Illustrator 24.0.0, SVG Export Plug-In . SVG Version: 6.00 Build 0)  -->
<svg version="1.1" id="Layer_1" xmlns="http://www.w3.org/2000/svg" xmlns:xlink="http://www.w3.org/1999/xlink" x="0px" y="0px"
	 viewBox="0 0 24 24" style="enable-background:new 0 0 24 24;" xml:space="preserve">
<title>icon</title>
<path d="M12,1.7C6.3,1.7,1.7,6.3,1.7,12S6.3,22.3,12,22.3S22.3,17.7,22.3,12S17.7,1.7,12,1.7z M4.4,6.4c1.1-1.5,2.7-2.7,4.5-3.3
	L9.3,3L9.1,3.3C8.4,4.1,7.8,5.2,7.4,6.5l0,0.1H4.3L4.4,6.4z M2.6,11.4c0.1-1.3,0.4-2.6,1.1-3.8l0-0.1h3.4l0,0.2
	c-0.3,1.3-0.4,2.5-0.5,3.8l0,0.1h-4L2.6,11.4z M3.7,16.4c-0.6-1.2-1-2.5-1.1-3.8l0-0.1h4l0,0.1c0,1.4,0.2,2.6,0.5,3.8l0,0.2
	L3.7,16.4L3.7,16.4z M8.9,20.9c-1.8-0.6-3.4-1.8-4.5-3.3l-0.1-0.2h3.1l0,0.1c0.4,1.3,1,2.4,1.6,3.2L9.3,21L8.9,20.9z M11.6,21.4
	l-0.2,0c-1.2-0.4-2.2-1.7-3-3.8l-0.1-0.2h3.2V21.4z M11.6,16.5H8.1l0-0.1c-0.3-1.3-0.5-2.6-0.5-3.8l0-0.1h4V16.5z M11.6,11.6h-4
	l0-0.1c0-1.3,0.2-2.7,0.5-3.8l0-0.1h3.5V11.6z M11.6,6.6H8.3l0.1-0.2c0.7-2,1.8-3.4,3-3.8l0.2,0V6.6z M20.3,7.6
	c0.6,1.2,1,2.5,1.1,3.8l0,0.1h-4l0-0.1c0-1.4-0.2-2.6-0.5-3.8l0-0.2L20.3,7.6L20.3,7.6z M15.1,3.1c1.8,0.6,3.4,1.8,4.5,3.3l0.1,0.2
	h-3.1l0-0.1c-0.4-1.3-1-2.4-1.7-3.2L14.7,3L15.1,3.1z M12.4,2.6l0.2,0c1.2,0.4,2.2,1.7,3,3.8l0.1,0.2h-3.2V2.6z M12.4,7.5h3.5l0,0.1
	c0.3,1.3,0.5,2.6,0.5,3.8l0,0.1h-4V7.5z M12.4,12.4h4l0,0.1c0,1.3-0.2,2.7-0.5,3.8l0,0.1h-3.5V12.4z M12.6,21.3l-0.2,0v-4h3.2
	l-0.1,0.2C14.9,19.6,13.8,21,12.6,21.3z M19.6,17.6c-1.1,1.5-2.7,2.7-4.5,3.3L14.7,21l0.3-0.3c0.7-0.8,1.2-1.9,1.7-3.2l0-0.1h3.1
	L19.6,17.6z M20.3,16.4L20.3,16.4l-3.4,0.1l0-0.2c0.3-1.3,0.4-2.5,0.5-3.8l0-0.1h4l0,0.1C21.3,13.9,20.9,15.2,20.3,16.4z"/>
</svg>
